poi/svg/1712.svg

<?xml version="1.0" encoding="UTF-8" standalone="no"?>
<svg
   xmlns:dc="http://purl.org/dc/elements/1.1/"
   xmlns:cc="http://creativecommons.org/ns#"
   xmlns:rdf="http://www.w3.org/1999/02/22-rdf-syntax-ns#"
   xmlns:svg="http://www.w3.org/2000/svg"
   xmlns="http://www.w3.org/2000/svg"
   xmlns:sodipodi="http://sodipodi.sourceforge.net/DTD/sodipodi-0.dtd"
   xmlns:inkscape="http://www.inkscape.org/namespaces/inkscape"
   inkscape:version="1.0 (4035a4fb49, 2020-05-01)"
   sodipodi:docname="1712.svg"
   id="svg20"
   version="1.2"
   viewBox="0 0 42.519639 42.519639"
   height="14.999999mm"
   width="14.999999mm">
  <metadata
     id="metadata24">
    <rdf:RDF>
      <cc:Work
         rdf:about="">
        <dc:format>image/svg+xml</dc:format>
        <dc:type
           rdf:resource="http://purl.org/dc/dcmitype/StillImage" />
        <dc:title>Qt SVG Document</dc:title>
      </cc:Work>
    </rdf:RDF>
  </metadata>
  <sodipodi:namedview
     inkscape:current-layer="svg20"
     inkscape:window-maximized="0"
     inkscape:window-y="0"
     inkscape:window-x="0"
     inkscape:cy="28.346482"
     inkscape:cx="28.346482"
     inkscape:zoom="5.8410537"
     showgrid="false"
     id="namedview22"
     inkscape:window-height="480"
     inkscape:window-width="1034"
     inkscape:pageshadow="2"
     inkscape:pageopacity="0"
     guidetolerance="10"
     gridtolerance="10"
     objecttolerance="10"
     borderopacity="1"
     bordercolor="#666666"
     pagecolor="#ffffff" />
  <title
     id="title2">Qt SVG Document</title>
  <desc
     id="desc4">Generated with Qt</desc>
  <defs
     id="defs6" />
  <g
     transform="translate(5.25984,5.25984)"
     id="g18"
     stroke-linejoin="bevel"
     stroke-linecap="square"
     fill-rule="evenodd"
     stroke-width="1"
     stroke="#000000"
     fill="none">
    <g
       id="g10"
       font-style="normal"
       font-weight="400"
       font-size="7.8px"
       font-family="'MS Shell Dlg 2'"
       stroke="none"
       fill-opacity="1"
       fill="#b75800">
      <path
         id="path8"
         d="M 37.2598,16 C 37.2598,27.7415 27.7415,37.2598 16,37.2598 4.25851,37.2598 -5.25984,27.7415 -5.25984,16 -5.25984,4.25851 4.25851,-5.25984 16,-5.25984 27.7415,-5.25984 37.2598,4.25851 37.2598,16"
         fill-rule="evenodd"
         vector-effect="non-scaling-stroke" />
    </g>
    <g
       id="g14"
       font-style="normal"
       font-weight="400"
       font-size="7.8px"
       font-family="'MS Shell Dlg 2'"
       transform="translate(16,13.1654)"
       stroke="none"
       fill-opacity="0.94902"
       fill="#ffffff">
      <path
         id="path12"
         d="m 5.80713,-3.93164 c 1.6097,0 2.87296,0.25195 3.78979,0.75586 0.91688,0.5039 1.64118,1.11979 2.17308,1.84765 0.5319,0.72787 0.9413,1.508224 1.2283,2.34107 0.2869,0.83284 0.6264,1.56421 1.0183,2.19409 0.3779,0.68587 0.4094,1.49422 0.0945,2.42505 -0.315,0.93083 -0.8679,1.84066 -1.6587,2.72949 -0.7909,0.88884 -1.7427,1.68323 -2.85548,2.38303 -1.11279,0.6999 -2.27107,1.1828 -3.47485,1.4488 -0.5179,0.1119 -1.17228,0.2974 -1.96313,0.5564 -0.79086,0.2589 -1.74618,0.4374 -2.86597,0.5354 -1.119793,0.0979 -2.40405,0.0629 -3.85278,-0.105 -1.44873,-0.168 -3.08993,-0.6439 -4.92359,-1.4278 -1.0778,-0.4199 -1.90364,-0.8188 -2.47754,-1.1967 -0.57386,-0.378 -1.01126,-0.7454 -1.31226,-1.10233 -0.3009,-0.35693 -0.5319,-0.72087 -0.6929,-1.0918 -0.1609,-0.37093 -0.3814,-0.77335 -0.6613,-1.20727 -0.266,-0.41992 -0.5284,-0.85384 -0.7874,-1.30176 -0.2589,-0.44792 -0.4514,-0.90983 -0.5774,-1.38574 -0.126,-0.47591 -0.182,-0.96932 -0.168,-1.48023 0.014,-0.5109 0.161,-1.0533 0.441,-1.62719 0.5179,-1.063807 1.0638,-1.840663 1.6377,-2.330571 0.5739,-0.489909 1.2072,-0.853839 1.9001,-1.091799 0.69287,-0.23795 1.46623,-0.43042 2.32007,-0.57739 0.85384,-0.14697 1.82666,-0.43742 2.91846,-0.87134 1.20377,-0.44792 2.22209,-0.71737 3.05493,-0.80835 0.83285,-0.09098 1.630697,-0.10848 2.393555,-0.05249 0.762855,0.05599 1.543215,0.15047 2.341065,0.28345 0.79785,0.13297 1.78467,0.18546 2.96045,0.15747 M 0.0961914,8.45605 C 0.348145,8.45605 0.705078,8.41056 1.16699,8.31958 1.62891,8.2286 2.13281,8.10612 2.67871,7.95215 3.22461,7.79818 3.78451,7.59871 4.3584,7.35376 4.93229,7.10881 5.4432,6.83236 5.89111,6.52441 6.54899,6.03451 7.0354,5.43612 7.35034,4.72925 7.66528,4.02238 7.76676,3.51497 7.65479,3.20703 7.40283,2.57715 6.99691,2.18872 6.43701,2.04175 5.87712,1.89478 5.26123,1.84229 4.58936,1.88428 3.91748,1.92627 3.2526,1.98576 2.59473,2.06274 1.93685,2.13973 1.39095,2.07324 0.957031,1.86328 0.523112,1.69531 0.0996908,1.59733 -0.313232,1.56934 -0.726156,1.54134 -1.12858,1.55534 -1.52051,1.61133 -1.91243,1.66732 -2.30786,1.7548 -2.70679,1.87378 -3.10571,1.99276 -3.49414,2.10824 -3.87207,2.22021 -4.52995,2.44417 -5.14583,2.63664 -5.71973,2.79761 -6.29362,2.95858 -6.69255,3.20703 -6.9165,3.54297 -7.19645,3.97689 -7.22445,4.4668 -7.00049,5.0127 c 0.22396,0.54589 0.65088,1.0603 1.28076,1.54321 0.62989,0.48291 1.44174,0.90633 2.43555,1.27026 0.99382,0.36393 2.12061,0.5739 3.3803714,0.62988"
         fill-rule="evenodd"
         vector-effect="none" />
    </g>
    <g
       id="g16"
       font-style="normal"
       font-weight="400"
       font-size="7.8px"
       font-family="'MS Shell Dlg 2'"
       stroke="none"
       fill-opacity="1"
       fill="#b75800" />
  </g>
</svg>

<?xml version="1.0" encoding="UTF-8" standalone="no"?>
<svg width="11.2889mm" height="11.2889mm"
 viewBox="0 0 32 32"
 xmlns="http://www.w3.org/2000/svg" xmlns:xlink="http://www.w3.org/1999/xlink"  version="1.2" baseProfile="tiny">
<title>Qt SVG Document</title>
<desc>Generated with Qt</desc>
<defs>
</defs>
<g fill="none" stroke="black" stroke-width="1" fill-rule="evenodd" stroke-linecap="square" stroke-linejoin="bevel" >

<g fill="#b75800" fill-opacity="1" stroke="none" transform="matrix(1,0,0,1,0,0)"
font-family="MS Shell Dlg 2" font-size="7.8" font-weight="400" font-style="normal" 
>
<path vector-effect="non-scaling-stroke" fill-rule="evenodd" d="M37.2598,16 C37.2598,27.7415 27.7415,37.2598 16,37.2598 C4.25851,37.2598 -5.25984,27.7415 -5.25984,16 C-5.25984,4.25851 4.25851,-5.25984 16,-5.25984 C27.7415,-5.25984 37.2598,4.25851 37.2598,16 "/>
</g>

<g fill="#ffffff" fill-opacity="0.94902" stroke="none" transform="matrix(1,0,0,1,16,13.1654)"
font-family="MS Shell Dlg 2" font-size="7.8" font-weight="400" font-style="normal" 
>
<path vector-effect="none" fill-rule="evenodd" d="M5.80713,-3.93164 C7.41683,-3.93164 8.68009,-3.67969 9.59692,-3.17578 C10.5138,-2.67188 11.2381,-2.05599 11.77,-1.32813 C12.3019,-0.60026 12.7113,0.180094 12.9983,1.01294 C13.2852,1.84578 13.6247,2.57715 14.0166,3.20703 C14.3945,3.8929 14.426,4.70125 14.1111,5.63208 C13.7961,6.56291 13.2432,7.47274 12.4524,8.36157 C11.6615,9.25041 10.7097,10.0448 9.59692,10.7446 C8.48413,11.4445 7.32585,11.9274 6.12207,12.1934 C5.60417,12.3053 4.94979,12.4908 4.15894,12.7498 C3.36808,13.0087 2.41276,13.1872 1.29297,13.2852 C0.173177,13.3831 -1.11108,13.3481 -2.55981,13.1802 C-4.00854,13.0122 -5.64974,12.5363 -7.4834,11.7524 C-8.5612,11.3325 -9.38704,10.9336 -9.96094,10.5557 C-10.5348,10.1777 -10.9722,9.8103 -11.2732,9.45337 C-11.5741,9.09644 -11.8051,8.7325 -11.9661,8.36157 C-12.127,7.99064 -12.3475,7.58822 -12.6274,7.1543 C-12.8934,6.73438 -13.1558,6.30046 -13.4148,5.85254 C-13.6737,5.40462 -13.8662,4.94271 -13.9922,4.4668 C-14.1182,3.99089 -14.1742,3.49748 -14.1602,2.98657 C-14.1462,2.47567 -13.9992,1.93327 -13.7192,1.35938 C-13.2013,0.295573 -12.6554,-0.481283 -12.0815,-0.971191 C-11.5076,-1.4611 -10.8743,-1.82503 -10.1814,-2.06299 C-9.48853,-2.30094 -8.71517,-2.49341 -7.86133,-2.64038 C-7.00749,-2.78735 -6.03467,-3.0778 -4.94287,-3.51172 C-3.7391,-3.95964 -2.72078,-4.22909 -1.88794,-4.32007 C-1.05509,-4.41105 -0.257243,-4.42855 0.505615,-4.37256 C1.26847,-4.31657 2.04883,-4.22209 2.84668,-4.08911 C3.64453,-3.95614 4.63135,-3.90365 5.80713,-3.93164 M0.0961914,8.45605 C0.348145,8.45605 0.705078,8.41056 1.16699,8.31958 C1.62891,8.2286 2.13281,8.10612 2.67871,7.95215 C3.22461,7.79818 3.78451,7.59871 4.3584,7.35376 C4.93229,7.10881 5.4432,6.83236 5.89111,6.52441 C6.54899,6.03451 7.0354,5.43612 7.35034,4.72925 C7.66528,4.02238 7.76676,3.51497 7.65479,3.20703 C7.40283,2.57715 6.99691,2.18872 6.43701,2.04175 C5.87712,1.89478 5.26123,1.84229 4.58936,1.88428 C3.91748,1.92627 3.2526,1.98576 2.59473,2.06274 C1.93685,2.13973 1.39095,2.07324 0.957031,1.86328 C0.523112,1.69531 0.0996908,1.59733 -0.313232,1.56934 C-0.726156,1.54134 -1.12858,1.55534 -1.52051,1.61133 C-1.91243,1.66732 -2.30786,1.7548 -2.70679,1.87378 C-3.10571,1.99276 -3.49414,2.10824 -3.87207,2.22021 C-4.52995,2.44417 -5.14583,2.63664 -5.71973,2.79761 C-6.29362,2.95858 -6.69255,3.20703 -6.9165,3.54297 C-7.19645,3.97689 -7.22445,4.4668 -7.00049,5.0127 C-6.77653,5.55859 -6.34961,6.073 -5.71973,6.55591 C-5.08984,7.03882 -4.27799,7.46224 -3.28418,7.82617 C-2.29036,8.1901 -1.16357,8.40007 0.0961914,8.45605 "/>
</g>

<g fill="#b75800" fill-opacity="1" stroke="none" transform="matrix(1,0,0,1,0,0)"
font-family="MS Shell Dlg 2" font-size="7.8" font-weight="400" font-style="normal" 
>
</g>
</g>
</svg>
